ICONS/component-icons/svg/chart.svg

<?xml version="1.0" encoding="UTF-8"?><svg id="widgets" xmlns="http://www.w3.org/2000/svg" width="24" height="24" viewBox="0 0 24 24"><path id="chart" d="M0,21H24l-2,2H0v-2ZM12,12v7h4v-7h-4Zm6-5v12h4V7h-4Zm-12,2v10h4V9H6Zm-2,5H0v5H4v-5ZM20.98,2.1s.02-.07,.02-.1c0-.55-.45-1-1-1s-1,.45-1,1c0,.06,.02,.11,.03,.16l-4.69,3.91c-.11-.04-.22-.07-.34-.07-.2,0-.38,.07-.54,.18l-4.48-2.24c-.04-.52-.46-.93-.99-.93s-1,.45-1,1c0,.09,.03,.16,.05,.24L2.24,9.05c-.08-.02-.16-.05-.24-.05-.13,0-.25,.03-.37,.07l-1.63-1.26v1.27l1.02,.8s-.02,.08-.02,.12c0,.55,.45,1,1,1s1-.45,1-1c0-.09-.03-.16-.05-.24L7.76,4.95c.08,.02,.16,.05,.24,.05,.2,0,.38-.07,.53-.17l4.48,2.24c.03,.52,.46,.94,.99,.94s1-.45,1-1c0-.06-.02-.1-.03-.16l4.69-3.91c.11,.04,.22,.07,.34,.07,.14,0,.28-.03,.4-.09l3.6,2.64v-1.23l-3.02-2.22Z"/></svg>

<?xml version="1.0" encoding="utf-8"?>
<!-- Generator: Adobe Illustrator 24.2.3, SVG Export Plug-In . SVG Version: 6.00 Build 0)  -->
<svg version="1.1" id="Layer_1" xmlns="http://www.w3.org/2000/svg" xmlns:xlink="http://www.w3.org/1999/xlink" x="0px" y="0px"
	 width="24px" height="24px" viewBox="0 0 24 24" enable-background="new 0 0 24 24" xml:space="preserve">
<path d="M6,9v10h4V9H6z M4,14H0v5h4V14z M0,23h22l2-2H0V23z M21,2.1L21,2.1C21,1.4,20.6,1,20,1s-1,0.4-1,1c0,0.1,0,0.1,0,0.2
	l-4.7,3.9C14.2,6,14.1,6,14,6c-0.2,0-0.4,0.1-0.5,0.2L9,3.9c0-0.6-0.5-1-1-1C7.4,3,7,3.4,7,4c0,0.1,0,0.2,0,0.2L2.2,9.1
	C2.2,9,2.1,9,2,9C1.9,9,1.7,9,1.6,9.1L0,7.8v1.3l1,0.8V10c0,0.6,0.4,1,1,1s1-0.4,1-1c0-0.1,0-0.2,0-0.2L7.8,5C7.8,5,7.9,5,8,5
	c0.2,0,0.4-0.1,0.5-0.2L13,7.1c0,0.6,0.5,1,1,1c0.6,0,1-0.5,1-1l0,0c0-0.1,0-0.1,0-0.2l4.7-3.9C19.8,3,19.9,3,20,3
	c0.1,0,0.3,0,0.4-0.1L24,5.6V4.3L21,2.1z M18,7v12h4V7H18z M12,12v7h4v-7H12z"/>
</svg>
